X:83
T:Poor Fisherman's Boy
F:http://www.vwml.org/record/FK/2/41
M:4/4
L:1/8
Z:Transcribed by Steve Mansfield, October 2015
K:G
G2AF G2Bc | d2AG FED2 | G2AF G2Bc | ((3de=f) ((3ed^c) d3d |
eece dcAB | ccBA GFDB/c/ | d=fec d/d/cAF | GG [cB][BA] G4 |]

